source/work/images/artifact_motionstudies.svg

<svg xmlns="http://www.w3.org/2000/svg" width="64" height="64" viewBox="0 0 64 64"><style type="text/css">.frame{fill:#FFFFFF;} .content{opacity:0.5;fill:#FFFFFF;}</style><path class="frame" d="M63 25v-20c0-1.657-1.343-3-3-3h-56c-1.657 0-3 1.343-3 3v20c0 1.657 1.343 3 3 3h16l-16 8c-1.657 0-3 1.343-3 3v20c0 1.657 1.343 3 3 3h56c1.657 0 3-1.343 3-3v-20c0-1.657-1.343-3-3-3h-16l16-8c1.657 0 3-1.343 3-3zm-3 12c1.103 0 2 .897 2 2v20c0 1.103-.897 2-2 2h-56c-1.103 0-2-.897-2-2v-20c0-1.103.897-2 2-2h56zm-18.236-1h-35.528l16-8h35.528l-16 8zm-19.764-9h-18c-1.103 0-2-.897-2-2v-20c0-1.103.897-2 2-2h56c1.103 0 2 .897 2 2v20c0 1.103-.897 2-2 2h-38z"/><path class="content" d="M15 8h-8c-1.105 0-2 .895-2 2v10c0 1.105.895 2 2 2h8c1.105 0 2-.895 2-2v-10c0-1.105-.895-2-2-2zm1 2v10l-.036.176-4.313-5.176 4.313-5.176.036.176zm-1-1c.106 0 .203.03.298.06l-4.298 5.159-4.298-5.159c.095-.03.192-.06.298-.06h8zm-8.964 11.176l-.036-.176v-10l.036-.176 4.313 5.176-4.313 5.176zm.964.824c-.106 0-.203-.03-.298-.06l4.298-5.159 4.298 5.158c-.095.031-.192.061-.298.061h-8zm14 1h8c1.105 0 2-.895 2-2v-10c0-1.105-.895-2-2-2h-8c-1.105 0-2 .895-2 2v10c0 1.105.895 2 2 2zm-1-2v-10l.036-.176 4.313 5.176-4.313 5.176-.036-.176zm1 1c-.106 0-.203-.03-.298-.06l4.298-5.159 4.298 5.158c-.095.031-.192.061-.298.061h-8zm8.964-11.176l.036.176v10l-.036.176-4.313-5.176 4.313-5.176zm-.964-.824c.106 0 .203.03.298.06l-4.298 5.159-4.298-5.159c.095-.03.192-.06.298-.06h8zm14-1h-8c-1.105 0-2 .895-2 2v10c0 1.105.895 2 2 2h8c1.105 0 2-.895 2-2v-10c0-1.105-.895-2-2-2zm1 2v10l-.036.176-4.313-5.176 4.313-5.176.036.176zm-1-1c.106 0 .203.03.298.06l-4.298 5.159-4.298-5.159c.095-.03.192-.06.298-.06h8zm-8.964 11.176l-.036-.176v-10l.036-.176 4.313 5.176-4.313 5.176zm.964.824c-.106 0-.203-.03-.298-.06l4.298-5.159 4.298 5.158c-.095.031-.192.061-.298.061h-8zm14 1h8c1.105 0 2-.895 2-2v-10c0-1.105-.895-2-2-2h-8c-1.105 0-2 .895-2 2v10c0 1.105.895 2 2 2zm-1-2v-10l.036-.176 4.313 5.176-4.313 5.176-.036-.176zm1 1c-.106 0-.203-.03-.298-.06l4.298-5.159 4.298 5.158c-.095.031-.192.061-.298.061h-8zm8.964-11.176l.036.176v10l-.036.176-4.313-5.176 4.313-5.176zm-.964-.824c.106 0 .203.03.298.06l-4.298 5.159-4.298-5.159c.095-.03.192-.06.298-.06h8zm-54-4c0-.552.448-1 1-1s1 .448 1 1-.448 1-1 1-1-.448-1-1zm4 0c0-.552.448-1 1-1s1 .448 1 1-.448 1-1 1-1-.448-1-1zm4 0c0-.552.448-1 1-1s1 .448 1 1-.448 1-1 1-1-.448-1-1zm6 0c0 .552-.448 1-1 1s-1-.448-1-1 .448-1 1-1 1 .448 1 1zm2 0c0-.552.448-1 1-1s1 .448 1 1-.448 1-1 1-1-.448-1-1zm4 0c0-.552.448-1 1-1s1 .448 1 1-.448 1-1 1-1-.448-1-1zm4 0c0-.552.448-1 1-1s1 .448 1 1-.448 1-1 1-1-.448-1-1zm4 0c0-.552.448-1 1-1s1 .448 1 1-.448 1-1 1-1-.448-1-1zm4 0c0-.552.448-1 1-1s1 .448 1 1-.448 1-1 1-1-.448-1-1zm4 0c0-.552.448-1 1-1s1 .448 1 1-.448 1-1 1-1-.448-1-1zm6 0c0 .552-.448 1-1 1s-1-.448-1-1 .448-1 1-1 1 .448 1 1zm2 0c0-.552.448-1 1-1s1 .448 1 1-.448 1-1 1-1-.448-1-1zm4 0c0-.552.448-1 1-1s1 .448 1 1-.448 1-1 1-1-.448-1-1zm4 0c0-.552.448-1 1-1s1 .448 1 1-.448 1-1 1-1-.448-1-1zm4 0c0-.552.448-1 1-1s1 .448 1 1-.448 1-1 1-1-.448-1-1zm-56 20c0-.552.448-1 1-1s1 .448 1 1-.448 1-1 1-1-.448-1-1zm4 0c0-.552.448-1 1-1s1 .448 1 1-.448 1-1 1-1-.448-1-1zm4 0c0-.552.448-1 1-1s1 .448 1 1-.448 1-1 1-1-.448-1-1zm6 0c0 .552-.448 1-1 1s-1-.448-1-1 .448-1 1-1 1 .448 1 1zm2 0c0-.552.448-1 1-1s1 .448 1 1-.448 1-1 1-1-.448-1-1zm6 0c0 .552-.448 1-1 1s-1-.448-1-1 .448-1 1-1 1 .448 1 1zm4 0c0 .552-.448 1-1 1s-1-.448-1-1 .448-1 1-1 1 .448 1 1zm4 0c0 .552-.448 1-1 1s-1-.448-1-1 .448-1 1-1 1 .448 1 1zm2 0c0-.552.448-1 1-1s1 .448 1 1-.448 1-1 1-1-.448-1-1zm4 0c0-.552.448-1 1-1s1 .448 1 1-.448 1-1 1-1-.448-1-1zm6 0c0 .552-.448 1-1 1s-1-.448-1-1 .448-1 1-1 1 .448 1 1zm2 0c0-.552.448-1 1-1s1 .448 1 1-.448 1-1 1-1-.448-1-1zm6 0c0 .552-.448 1-1 1s-1-.448-1-1 .448-1 1-1 1 .448 1 1zm4 0c0 .552-.448 1-1 1s-1-.448-1-1 .448-1 1-1 1 .448 1 1zm4 0c0 .552-.448 1-1 1s-1-.448-1-1 .448-1 1-1 1 .448 1 1zm-46 17h-8c-1.105 0-2 .895-2 2v10c0 1.105.895 2 2 2h8c1.105 0 2-.895 2-2v-10c0-1.105-.895-2-2-2zm1 2v10l-.036.176-4.313-5.176 4.313-5.176.036.176zm-1-1c.106 0 .203.03.298.06l-4.298 5.159-4.298-5.159c.095-.03.192-.06.298-.06h8zm-8.964 11.176l-.036-.176v-10l.036-.176 4.313 5.176-4.313 5.176zm.964.824c-.106 0-.203-.03-.298-.06l4.298-5.159 4.298 5.158c-.095.031-.192.061-.298.061h-8zm24-11c0-1.105-.895-2-2-2h-8c-1.105 0-2 .895-2 2v10c0 1.105.895 2 2 2h8c1.105 0 2-.895 2-2v-10zm-1 0v10l-.036.176-4.313-5.176 4.313-5.176.036.176zm-1-1c.106 0 .203.03.298.06l-4.298 5.159-4.298-5.158c.095-.031.192-.061.298-.061h8zm-8.964 11.176l-.036-.176v-10l.036-.176 4.313 5.176-4.313 5.176zm.964.824c-.106 0-.203-.03-.298-.06l4.298-5.159 4.298 5.158c-.095.031-.192.061-.298.061h-8zm22-13h-8c-1.105 0-2 .895-2 2v10c0 1.105.895 2 2 2h8c1.105 0 2-.895 2-2v-10c0-1.105-.895-2-2-2zm1 2v10l-.036.176-4.313-5.176 4.313-5.176.036.176zm-1-1c.106 0 .203.03.298.06l-4.298 5.159-4.298-5.158c.095-.031.192-.061.298-.061h8zm-8.964 11.176l-.036-.176v-10l.036-.176 4.313 5.176-4.313 5.176zm.964.824c-.106 0-.203-.03-.298-.06l4.298-5.159 4.298 5.158c-.095.031-.192.061-.298.061h-8zm24-11c0-1.105-.895-2-2-2h-8c-1.105 0-2 .895-2 2v10c0 1.105.895 2 2 2h8c1.105 0 2-.895 2-2v-10zm-1 0v10l-.036.176-4.313-5.176 4.313-5.176.036.176zm-1-1c.106 0 .203.03.298.06l-4.298 5.159-4.298-5.158c.095-.031.192-.061.298-.061h8zm-8.964 11.176l-.036-.176v-10l.036-.176 4.313 5.176-4.313 5.176zm.964.824c-.106 0-.203-.03-.298-.06l4.298-5.159 4.298 5.158c-.095.031-.192.061-.298.061h-8zm-46-16c0-.552.448-1 1-1s1 .448 1 1-.448 1-1 1-1-.448-1-1zm4 0c0-.552.448-1 1-1s1 .448 1 1-.448 1-1 1-1-.448-1-1zm4 0c0-.552.448-1 1-1s1 .448 1 1-.448 1-1 1-1-.448-1-1zm6 0c0 .552-.448 1-1 1s-1-.448-1-1 .448-1 1-1 1 .448 1 1zm2 0c0-.552.448-1 1-1s1 .448 1 1-.448 1-1 1-1-.448-1-1zm6 0c0 .552-.448 1-1 1s-1-.448-1-1 .448-1 1-1 1 .448 1 1zm4 0c0 .552-.448 1-1 1s-1-.448-1-1 .448-1 1-1 1 .448 1 1zm4 0c0 .552-.448 1-1 1s-1-.448-1-1 .448-1 1-1 1 .448 1 1zm2 0c0-.552.448-1 1-1s1 .448 1 1-.448 1-1 1-1-.448-1-1zm4 0c0-.552.448-1 1-1s1 .448 1 1-.448 1-1 1-1-.448-1-1zm6 0c0 .552-.448 1-1 1s-1-.448-1-1 .448-1 1-1 1 .448 1 1zm2 0c0-.552.448-1 1-1s1 .448 1 1-.448 1-1 1-1-.448-1-1zm6 0c0 .552-.448 1-1 1s-1-.448-1-1 .448-1 1-1 1 .448 1 1zm4 0c0 .552-.448 1-1 1s-1-.448-1-1 .448-1 1-1 1 .448 1 1zm4 0c0 .552-.448 1-1 1s-1-.448-1-1 .448-1 1-1 1 .448 1 1zm-56 20c0 .552-.448 1-1 1s-1-.448-1-1 .448-1 1-1 1 .448 1 1zm4 0c0 .552-.448 1-1 1s-1-.448-1-1 .448-1 1-1 1 .448 1 1zm4 0c0 .552-.448 1-1 1s-1-.448-1-1 .448-1 1-1 1 .448 1 1zm4 0c0 .552-.448 1-1 1s-1-.448-1-1 .448-1 1-1 1 .448 1 1zm4 0c0 .552-.448 1-1 1s-1-.448-1-1 .448-1 1-1 1 .448 1 1zm4 0c0 .552-.448 1-1 1s-1-.448-1-1 .448-1 1-1 1 .448 1 1zm4 0c0 .552-.448 1-1 1s-1-.448-1-1 .448-1 1-1 1 .448 1 1zm4 0c0 .552-.448 1-1 1s-1-.448-1-1 .448-1 1-1 1 .448 1 1zm4 0c0 .552-.448 1-1 1s-1-.448-1-1 .448-1 1-1 1 .448 1 1zm4 0c0 .552-.448 1-1 1s-1-.448-1-1 .448-1 1-1 1 .448 1 1zm4 0c0 .552-.448 1-1 1s-1-.448-1-1 .448-1 1-1 1 .448 1 1zm4 0c0 .552-.448 1-1 1s-1-.448-1-1 .448-1 1-1 1 .448 1 1zm4 0c0 .552-.448 1-1 1s-1-.448-1-1 .448-1 1-1 1 .448 1 1zm4 0c0 .552-.448 1-1 1s-1-.448-1-1 .448-1 1-1 1 .448 1 1zm4 0c0 .552-.448 1-1 1s-1-.448-1-1 .448-1 1-1 1 .448 1 1z"/></svg>

<?xml version="1.0" encoding="utf-8"?>
<!-- Generator: Adobe Illustrator 19.2.1, SVG Export Plug-In . SVG Version: 6.00 Build 0)  -->
<svg version="1.1" id="icons" xmlns="http://www.w3.org/2000/svg" xmlns:xlink="http://www.w3.org/1999/xlink" x="0px" y="0px"
	 width="64px" height="64px" viewBox="0 0 64 64" style="enable-background:new 0 0 64 64;" xml:space="preserve">
<style type="text/css">
	.frame{fill:#FFFFFF;}
	.content{opacity:0.5;fill:#FFFFFF;}
</style>
<path class="frame" d="M63,25V5c0-1.657-1.343-3-3-3H4C2.343,2,1,3.343,1,5v20c0,1.657,1.343,3,3,3h16L4,36c-1.657,0-3,1.343-3,3v20
	c0,1.657,1.343,3,3,3h56c1.657,0,3-1.343,3-3V39c0-1.657-1.343-3-3-3H44l16-8C61.657,28,63,26.657,63,25z M60,37
	c1.103,0,2,0.897,2,2v20c0,1.103-0.897,2-2,2H4c-1.103,0-2-0.897-2-2V39c0-1.103,0.897-2,2-2h38H60z M41.764,36H6.236l16-8h35.528
	L41.764,36z M22,27H4c-1.103,0-2-0.897-2-2V5c0-1.103,0.897-2,2-2h56c1.103,0,2,0.897,2,2v20c0,1.103-0.897,2-2,2H22z"/>
<path class="content" d="M15,8H7c-1.105,0-2,0.895-2,2v10c0,1.105,0.895,2,2,2h8c1.105,0,2-0.895,2-2V10C17,8.895,16.105,8,15,8z
	 M16,10v10c0,0.062-0.025,0.117-0.036,0.176L11.651,15l4.313-5.176C15.975,9.883,16,9.938,16,10z M15,9
	c0.106,0,0.203,0.03,0.298,0.06L11,14.219L6.702,9.06C6.797,9.03,6.894,9,7,9H15z M6.036,20.176C6.025,20.117,6,20.062,6,20V10
	c0-0.062,0.025-0.117,0.036-0.176L10.349,15L6.036,20.176z M7,21c-0.106,0-0.203-0.03-0.298-0.06L11,15.781l4.298,5.158
	C15.203,20.97,15.106,21,15,21H7z M21,22h8c1.105,0,2-0.895,2-2V10c0-1.105-0.895-2-2-2h-8c-1.105,0-2,0.895-2,2v10
	C19,21.105,19.895,22,21,22z M20,20V10c0-0.062,0.025-0.117,0.036-0.176L24.349,15l-4.313,5.176C20.025,20.117,20,20.062,20,20z
	 M21,21c-0.106,0-0.203-0.03-0.298-0.06L25,15.781l4.298,5.158C29.203,20.97,29.106,21,29,21H21z M29.964,9.824
	C29.975,9.883,30,9.938,30,10v10c0,0.062-0.025,0.117-0.036,0.176L25.651,15L29.964,9.824z M29,9c0.106,0,0.203,0.03,0.298,0.06
	L25,14.219L20.702,9.06C20.797,9.03,20.894,9,21,9H29z M43,8h-8c-1.105,0-2,0.895-2,2v10c0,1.105,0.895,2,2,2h8c1.105,0,2-0.895,2-2
	V10C45,8.895,44.105,8,43,8z M44,10v10c0,0.062-0.025,0.117-0.036,0.176L39.651,15l4.313-5.176C43.975,9.883,44,9.938,44,10z M43,9
	c0.106,0,0.203,0.03,0.298,0.06L39,14.219L34.702,9.06C34.797,9.03,34.894,9,35,9H43z M34.036,20.176C34.025,20.117,34,20.062,34,20
	V10c0-0.062,0.025-0.117,0.036-0.176L38.349,15L34.036,20.176z M35,21c-0.106,0-0.203-0.03-0.298-0.06L39,15.781l4.298,5.158
	C43.203,20.97,43.106,21,43,21H35z M49,22h8c1.105,0,2-0.895,2-2V10c0-1.105-0.895-2-2-2h-8c-1.105,0-2,0.895-2,2v10
	C47,21.105,47.895,22,49,22z M48,20V10c0-0.062,0.025-0.117,0.036-0.176L52.349,15l-4.313,5.176C48.025,20.117,48,20.062,48,20z
	 M49,21c-0.106,0-0.203-0.03-0.298-0.06L53,15.781l4.298,5.158C57.203,20.97,57.106,21,57,21H49z M57.964,9.824
	C57.975,9.883,58,9.938,58,10v10c0,0.062-0.025,0.117-0.036,0.176L53.651,15L57.964,9.824z M57,9c0.106,0,0.203,0.03,0.298,0.06
	L53,14.219L48.702,9.06C48.797,9.03,48.894,9,49,9H57z M3,5c0-0.552,0.448-1,1-1s1,0.448,1,1c0,0.552-0.448,1-1,1S3,5.552,3,5z M7,5
	c0-0.552,0.448-1,1-1s1,0.448,1,1c0,0.552-0.448,1-1,1S7,5.552,7,5z M11,5c0-0.552,0.448-1,1-1s1,0.448,1,1c0,0.552-0.448,1-1,1
	S11,5.552,11,5z M17,5c0,0.552-0.448,1-1,1s-1-0.448-1-1c0-0.552,0.448-1,1-1S17,4.448,17,5z M19,5c0-0.552,0.448-1,1-1s1,0.448,1,1
	c0,0.552-0.448,1-1,1S19,5.552,19,5z M23,5c0-0.552,0.448-1,1-1s1,0.448,1,1c0,0.552-0.448,1-1,1S23,5.552,23,5z M27,5
	c0-0.552,0.448-1,1-1s1,0.448,1,1c0,0.552-0.448,1-1,1S27,5.552,27,5z M31,5c0-0.552,0.448-1,1-1s1,0.448,1,1c0,0.552-0.448,1-1,1
	S31,5.552,31,5z M35,5c0-0.552,0.448-1,1-1s1,0.448,1,1c0,0.552-0.448,1-1,1S35,5.552,35,5z M39,5c0-0.552,0.448-1,1-1s1,0.448,1,1
	c0,0.552-0.448,1-1,1S39,5.552,39,5z M45,5c0,0.552-0.448,1-1,1s-1-0.448-1-1c0-0.552,0.448-1,1-1S45,4.448,45,5z M47,5
	c0-0.552,0.448-1,1-1s1,0.448,1,1c0,0.552-0.448,1-1,1S47,5.552,47,5z M51,5c0-0.552,0.448-1,1-1s1,0.448,1,1c0,0.552-0.448,1-1,1
	S51,5.552,51,5z M55,5c0-0.552,0.448-1,1-1s1,0.448,1,1c0,0.552-0.448,1-1,1S55,5.552,55,5z M59,5c0-0.552,0.448-1,1-1s1,0.448,1,1
	c0,0.552-0.448,1-1,1S59,5.552,59,5z M3,25c0-0.552,0.448-1,1-1s1,0.448,1,1c0,0.552-0.448,1-1,1S3,25.552,3,25z M7,25
	c0-0.552,0.448-1,1-1s1,0.448,1,1c0,0.552-0.448,1-1,1S7,25.552,7,25z M11,25c0-0.552,0.448-1,1-1s1,0.448,1,1c0,0.552-0.448,1-1,1
	S11,25.552,11,25z M17,25c0,0.552-0.448,1-1,1s-1-0.448-1-1c0-0.552,0.448-1,1-1S17,24.448,17,25z M19,25c0-0.552,0.448-1,1-1
	s1,0.448,1,1c0,0.552-0.448,1-1,1S19,25.552,19,25z M25,25c0,0.552-0.448,1-1,1s-1-0.448-1-1c0-0.552,0.448-1,1-1S25,24.448,25,25z
	 M29,25c0,0.552-0.448,1-1,1s-1-0.448-1-1c0-0.552,0.448-1,1-1S29,24.448,29,25z M33,25c0,0.552-0.448,1-1,1s-1-0.448-1-1
	c0-0.552,0.448-1,1-1S33,24.448,33,25z M35,25c0-0.552,0.448-1,1-1s1,0.448,1,1c0,0.552-0.448,1-1,1S35,25.552,35,25z M39,25
	c0-0.552,0.448-1,1-1s1,0.448,1,1c0,0.552-0.448,1-1,1S39,25.552,39,25z M45,25c0,0.552-0.448,1-1,1s-1-0.448-1-1
	c0-0.552,0.448-1,1-1S45,24.448,45,25z M47,25c0-0.552,0.448-1,1-1s1,0.448,1,1c0,0.552-0.448,1-1,1S47,25.552,47,25z M53,25
	c0,0.552-0.448,1-1,1s-1-0.448-1-1c0-0.552,0.448-1,1-1S53,24.448,53,25z M57,25c0,0.552-0.448,1-1,1s-1-0.448-1-1
	c0-0.552,0.448-1,1-1S57,24.448,57,25z M61,25c0,0.552-0.448,1-1,1s-1-0.448-1-1c0-0.552,0.448-1,1-1S61,24.448,61,25z M15,42H7
	c-1.105,0-2,0.895-2,2v10c0,1.105,0.895,2,2,2h8c1.105,0,2-0.895,2-2V44C17,42.895,16.105,42,15,42z M16,44v10
	c0,0.062-0.025,0.117-0.036,0.176L11.651,49l4.313-5.176C15.975,43.883,16,43.938,16,44z M15,43c0.106,0,0.203,0.03,0.298,0.06
	L11,48.219L6.702,43.06C6.797,43.03,6.894,43,7,43H15z M6.036,54.176C6.025,54.117,6,54.062,6,54V44
	c0-0.062,0.025-0.117,0.036-0.176L10.349,49L6.036,54.176z M7,55c-0.106,0-0.203-0.03-0.298-0.06L11,49.781l4.298,5.158
	C15.203,54.97,15.106,55,15,55H7z M31,44c0-1.105-0.895-2-2-2h-8c-1.105,0-2,0.895-2,2v10c0,1.105,0.895,2,2,2h8
	c1.105,0,2-0.895,2-2V44z M30,44v10c0,0.062-0.025,0.117-0.036,0.176L25.651,49l4.313-5.176C29.975,43.883,30,43.938,30,44z M29,43
	c0.106,0,0.203,0.03,0.298,0.06L25,48.219l-4.298-5.158C20.797,43.03,20.894,43,21,43H29z M20.036,54.176
	C20.025,54.117,20,54.062,20,54V44c0-0.062,0.025-0.117,0.036-0.176L24.349,49L20.036,54.176z M21,55
	c-0.106,0-0.203-0.03-0.298-0.06L25,49.781l4.298,5.158C29.203,54.97,29.106,55,29,55H21z M43,42h-8c-1.105,0-2,0.895-2,2v10
	c0,1.105,0.895,2,2,2h8c1.105,0,2-0.895,2-2V44C45,42.895,44.105,42,43,42z M44,44v10c0,0.062-0.025,0.117-0.036,0.176L39.651,49
	l4.313-5.176C43.975,43.883,44,43.938,44,44z M43,43c0.106,0,0.203,0.03,0.298,0.06L39,48.219l-4.298-5.158
	C34.797,43.03,34.894,43,35,43H43z M34.036,54.176C34.025,54.117,34,54.062,34,54V44c0-0.062,0.025-0.117,0.036-0.176L38.349,49
	L34.036,54.176z M35,55c-0.106,0-0.203-0.03-0.298-0.06L39,49.781l4.298,5.158C43.203,54.97,43.106,55,43,55H35z M59,44
	c0-1.105-0.895-2-2-2h-8c-1.105,0-2,0.895-2,2v10c0,1.105,0.895,2,2,2h8c1.105,0,2-0.895,2-2V44z M58,44v10
	c0,0.062-0.025,0.117-0.036,0.176L53.651,49l4.313-5.176C57.975,43.883,58,43.938,58,44z M57,43c0.106,0,0.203,0.03,0.298,0.06
	L53,48.219l-4.298-5.158C48.797,43.03,48.894,43,49,43H57z M48.036,54.176C48.025,54.117,48,54.062,48,54V44
	c0-0.062,0.025-0.117,0.036-0.176L52.349,49L48.036,54.176z M49,55c-0.106,0-0.203-0.03-0.298-0.06L53,49.781l4.298,5.158
	C57.203,54.97,57.106,55,57,55H49z M3,39c0-0.552,0.448-1,1-1s1,0.448,1,1c0,0.552-0.448,1-1,1S3,39.552,3,39z M7,39
	c0-0.552,0.448-1,1-1s1,0.448,1,1c0,0.552-0.448,1-1,1S7,39.552,7,39z M11,39c0-0.552,0.448-1,1-1s1,0.448,1,1c0,0.552-0.448,1-1,1
	S11,39.552,11,39z M17,39c0,0.552-0.448,1-1,1s-1-0.448-1-1c0-0.552,0.448-1,1-1S17,38.448,17,39z M19,39c0-0.552,0.448-1,1-1
	s1,0.448,1,1c0,0.552-0.448,1-1,1S19,39.552,19,39z M25,39c0,0.552-0.448,1-1,1s-1-0.448-1-1c0-0.552,0.448-1,1-1S25,38.448,25,39z
	 M29,39c0,0.552-0.448,1-1,1s-1-0.448-1-1c0-0.552,0.448-1,1-1S29,38.448,29,39z M33,39c0,0.552-0.448,1-1,1s-1-0.448-1-1
	c0-0.552,0.448-1,1-1S33,38.448,33,39z M35,39c0-0.552,0.448-1,1-1s1,0.448,1,1c0,0.552-0.448,1-1,1S35,39.552,35,39z M39,39
	c0-0.552,0.448-1,1-1s1,0.448,1,1c0,0.552-0.448,1-1,1S39,39.552,39,39z M45,39c0,0.552-0.448,1-1,1s-1-0.448-1-1
	c0-0.552,0.448-1,1-1S45,38.448,45,39z M47,39c0-0.552,0.448-1,1-1s1,0.448,1,1c0,0.552-0.448,1-1,1S47,39.552,47,39z M53,39
	c0,0.552-0.448,1-1,1s-1-0.448-1-1c0-0.552,0.448-1,1-1S53,38.448,53,39z M57,39c0,0.552-0.448,1-1,1s-1-0.448-1-1
	c0-0.552,0.448-1,1-1S57,38.448,57,39z M61,39c0,0.552-0.448,1-1,1s-1-0.448-1-1c0-0.552,0.448-1,1-1S61,38.448,61,39z M5,59
	c0,0.552-0.448,1-1,1s-1-0.448-1-1c0-0.552,0.448-1,1-1S5,58.448,5,59z M9,59c0,0.552-0.448,1-1,1s-1-0.448-1-1c0-0.552,0.448-1,1-1
	S9,58.448,9,59z M13,59c0,0.552-0.448,1-1,1s-1-0.448-1-1c0-0.552,0.448-1,1-1S13,58.448,13,59z M17,59c0,0.552-0.448,1-1,1
	s-1-0.448-1-1c0-0.552,0.448-1,1-1S17,58.448,17,59z M21,59c0,0.552-0.448,1-1,1s-1-0.448-1-1c0-0.552,0.448-1,1-1S21,58.448,21,59z
	 M25,59c0,0.552-0.448,1-1,1s-1-0.448-1-1c0-0.552,0.448-1,1-1S25,58.448,25,59z M29,59c0,0.552-0.448,1-1,1s-1-0.448-1-1
	c0-0.552,0.448-1,1-1S29,58.448,29,59z M33,59c0,0.552-0.448,1-1,1s-1-0.448-1-1c0-0.552,0.448-1,1-1S33,58.448,33,59z M37,59
	c0,0.552-0.448,1-1,1s-1-0.448-1-1c0-0.552,0.448-1,1-1S37,58.448,37,59z M41,59c0,0.552-0.448,1-1,1s-1-0.448-1-1
	c0-0.552,0.448-1,1-1S41,58.448,41,59z M45,59c0,0.552-0.448,1-1,1s-1-0.448-1-1c0-0.552,0.448-1,1-1S45,58.448,45,59z M49,59
	c0,0.552-0.448,1-1,1s-1-0.448-1-1c0-0.552,0.448-1,1-1S49,58.448,49,59z M53,59c0,0.552-0.448,1-1,1s-1-0.448-1-1
	c0-0.552,0.448-1,1-1S53,58.448,53,59z M57,59c0,0.552-0.448,1-1,1s-1-0.448-1-1c0-0.552,0.448-1,1-1S57,58.448,57,59z M61,59
	c0,0.552-0.448,1-1,1s-1-0.448-1-1c0-0.552,0.448-1,1-1S61,58.448,61,59z"/>
</svg>
